static/img/kroki/798f2bc6765d401eaa13f787481f88d7.svg

<?xml version="1.0" encoding="us-ascii" standalone="no"?><svg xmlns="http://www.w3.org/2000/svg" xmlns:xlink="http://www.w3.org/1999/xlink" contentStyleType="text/css" height="451px" preserveAspectRatio="none" style="width:498px;height:451px;" version="1.1" viewBox="0 0 498 451" width="498px" zoomAndPan="magnify"><defs/><g><!--class aws_backup_copy_job--><g id="elem_aws_backup_copy_job"><rect codeLine="23" fill="#3D176E" height="39.7891" id="aws_backup_copy_job" rx="2.5" ry="2.5" style="stroke:#000D19;stroke-width:0.5;" width="224" x="37" y="7"/><ellipse cx="52" cy="26.8945" fill="#ADD1B2" rx="11" ry="11" style="stroke:#181818;stroke-width:1.0;"/><path d="M54.9688,32.5352 Q54.3906,32.832 53.75,32.9727 Q53.1094,33.1289 52.4063,33.1289 Q49.9063,33.1289 48.5781,31.4883 Q47.2656,29.832 47.2656,26.707 Q47.2656,23.582 48.5781,21.9258 Q49.9063,20.2695 52.4063,20.2695 Q53.1094,20.2695 53.75,20.4258 Q54.4063,20.582 54.9688,20.8789 L54.9688,23.5977 Q54.3438,23.0195 53.75,22.7539 Q53.1563,22.4727 52.5313,22.4727 Q51.1875,22.4727 50.5,23.5508 Q49.8125,24.6133 49.8125,26.707 Q49.8125,28.8008 50.5,29.8789 Q51.1875,30.9414 52.5313,30.9414 Q53.1563,30.9414 53.75,30.6758 Q54.3438,30.3945 54.9688,29.8164 L54.9688,32.5352 Z " fill="#000000"/><text fill="#D9B8FF" font-family="Helvetica" font-size="17" lengthAdjust="spacing" textLength="182" x="71" y="32.7798">aws_backup_copy_job</text></g><!--class aws_backup_job--><g id="elem_aws_backup_job"><rect codeLine="26" fill="#3D176E" height="39.7891" id="aws_backup_job" rx="2.5" ry="2.5" style="stroke:#000D19;stroke-width:0.5;" width="177" x="197.5" y="206.58"/><ellipse cx="212.5" cy="226.4745" fill="#ADD1B2" rx="11" ry="11" style="stroke:#181818;stroke-width:1.0;"/><path d="M215.4688,232.1152 Q214.8906,232.412 214.25,232.5527 Q213.6094,232.7089 212.9063,232.7089 Q210.4063,232.7089 209.0781,231.0683 Q207.7656,229.412 207.7656,226.287 Q207.7656,223.162 209.0781,221.5058 Q210.4063,219.8495 212.9063,219.8495 Q213.6094,219.8495 214.25,220.0058 Q214.9063,220.162 215.4688,220.4589 L215.4688,223.1777 Q214.8438,222.5995 214.25,222.3339 Q213.6563,222.0527 213.0313,222.0527 Q211.6875,222.0527 211,223.1308 Q210.3125,224.1933 210.3125,226.287 Q210.3125,228.3808 211,229.4589 Q211.6875,230.5214 213.0313,230.5214 Q213.6563,230.5214 214.25,230.2558 Q214.8438,229.9745 215.4688,229.3964 L215.4688,232.1152 Z " fill="#000000"/><text fill="#D9B8FF" font-family="Helvetica" font-size="17" lengthAdjust="spacing" textLength="135" x="231.5" y="232.3598">aws_backup_job</text></g><!--class aws_backup_protected_resource--><g id="elem_aws_backup_protected_resource"><rect codeLine="29" fill="#3D176E" height="39.7891" id="aws_backup_protected_resource" rx="2.5" ry="2.5" style="stroke:#000D19;stroke-width:0.5;" width="311" x="180.5" y="406.16"/><ellipse cx="195.5" cy="426.0545" fill="#ADD1B2" rx="11" ry="11" style="stroke:#181818;stroke-width:1.0;"/><path d="M198.4688,431.6952 Q197.8906,431.992 197.25,432.1327 Q196.6094,432.2889 195.9063,432.2889 Q193.4063,432.2889 192.0781,430.6483 Q190.7656,428.992 190.7656,425.867 Q190.7656,422.742 192.0781,421.0858 Q193.4063,419.4295 195.9063,419.4295 Q196.6094,419.4295 197.25,419.5858 Q197.9063,419.742 198.4688,420.0389 L198.4688,422.7577 Q197.8438,422.1795 197.25,421.9139 Q196.6563,421.6327 196.0313,421.6327 Q194.6875,421.6327 194,422.7108 Q193.3125,423.7733 193.3125,425.867 Q193.3125,427.9608 194,429.0389 Q194.6875,430.1014 196.0313,430.1014 Q196.6563,430.1014 197.25,429.8358 Q197.8438,429.5545 198.4688,428.9764 L198.4688,431.6952 Z " fill="#000000"/><text fill="#D9B8FF" font-family="Helvetica" font-size="17" lengthAdjust="spacing" textLength="269" x="214.5" y="431.9398">aws_backup_protected_resource</text></g><!--class aws_backup_recovery_point--><g id="elem_aws_backup_recovery_point"><rect codeLine="32" fill="#3D176E" height="39.7891" id="aws_backup_recovery_point" rx="2.5" ry="2.5" style="stroke:#000D19;stroke-width:0.5;" width="276" x="7" y="306.37"/><ellipse cx="22" cy="326.2645" fill="#ADD1B2" rx="11" ry="11" style="stroke:#181818;stroke-width:1.0;"/><path d="M24.9688,331.9052 Q24.3906,332.202 23.75,332.3427 Q23.1094,332.4989 22.4063,332.4989 Q19.9063,332.4989 18.5781,330.8583 Q17.2656,329.202 17.2656,326.077 Q17.2656,322.952 18.5781,321.2958 Q19.9063,319.6395 22.4063,319.6395 Q23.1094,319.6395 23.75,319.7958 Q24.4063,319.952 24.9688,320.2489 L24.9688,322.9677 Q24.3438,322.3895 23.75,322.1239 Q23.1563,321.8427 22.5313,321.8427 Q21.1875,321.8427 20.5,322.9208 Q19.8125,323.9833 19.8125,326.077 Q19.8125,328.1708 20.5,329.2489 Q21.1875,330.3114 22.5313,330.3114 Q23.1563,330.3114 23.75,330.0458 Q24.3438,329.7645 24.9688,329.1864 L24.9688,331.9052 Z " fill="#000000"/><text fill="#D9B8FF" font-family="Helvetica" font-size="17" lengthAdjust="spacing" textLength="234" x="41" y="332.1498">aws_backup_recovery_point</text></g><!--class aws_backup_vault--><g id="elem_aws_backup_vault"><rect codeLine="35" fill="#3D176E" height="39.7891" id="aws_backup_vault" rx="2.5" ry="2.5" style="stroke:#000D19;stroke-width:0.5;" width="195" x="157.5" y="106.79"/><ellipse cx="172.5" cy="126.6845" fill="#ADD1B2" rx="11" ry="11" style="stroke:#181818;stroke-width:1.0;"/><path d="M175.4688,132.3252 Q174.8906,132.622 174.25,132.7627 Q173.6094,132.9189 172.9063,132.9189 Q170.4063,132.9189 169.0781,131.2783 Q167.7656,129.622 167.7656,126.497 Q167.7656,123.372 169.0781,121.7158 Q170.4063,120.0595 172.9063,120.0595 Q173.6094,120.0595 174.25,120.2158 Q174.9063,120.372 175.4688,120.6689 L175.4688,123.3877 Q174.8438,122.8095 174.25,122.5439 Q173.6563,122.2627 173.0313,122.2627 Q171.6875,122.2627 171,123.3408 Q170.3125,124.4033 170.3125,126.497 Q170.3125,128.5908 171,129.6689 Q171.6875,130.7314 173.0313,130.7314 Q173.6563,130.7314 174.25,130.4658 Q174.8438,130.1845 175.4688,129.6064 L175.4688,132.3252 Z " fill="#000000"/><text fill="#D9B8FF" font-family="Helvetica" font-size="17" lengthAdjust="spacing" textLength="153" x="191.5" y="132.5698">aws_backup_vault</text></g><!--link aws_backup_copy_job to aws_backup_recovery_point--><g id="link_aws_backup_copy_job_aws_backup_recovery_point"><path codeLine="38" d="M146.21,46.98 C144.02,62.92 141.17,86.29 140,106.79 C135.82,180.28 140.4291,261.8648 143.1091,299.9748 " fill="none" id="aws_backup_copy_job-to-aws_backup_recovery_point" style="stroke:#1A83AF;stroke-width:2.0;"/><polygon fill="#1A83AF" points="143.53,305.96,146.8888,296.7016,143.1793,300.9723,138.9085,297.2628,143.53,305.96" style="stroke:#1A83AF;stroke-width:2.0;"/></g><!--link aws_backup_copy_job to aws_backup_vault--><g id="link_aws_backup_copy_job_aws_backup_vault"><path codeLine="39" d="M169.94,47.22 C188.53,64.36 211.1198,85.2118 229.6898,102.3418 " fill="none" id="aws_backup_copy_job-to-aws_backup_vault" style="stroke:#1A83AF;stroke-width:2.0;"/><polygon fill="#1A83AF" points="234.1,106.41,230.1969,97.3676,230.4248,103.0198,224.7726,103.2478,234.1,106.41" style="stroke:#1A83AF;stroke-width:2.0;"/></g><!--link aws_backup_job to aws_backup_protected_resource--><g id="link_aws_backup_job_aws_backup_protected_resource"><path codeLine="40" d="M290.89,246.78 C300.44,284.55 320.0485,362.0232 329.6185,399.8532 " fill="none" id="aws_backup_job-to-aws_backup_protected_resource" style="stroke:#1A83AF;stroke-width:2.0;"/><polygon fill="#1A83AF" points="331.09,405.67,332.7606,395.9639,329.8638,400.8227,325.0049,397.9258,331.09,405.67" style="stroke:#1A83AF;stroke-width:2.0;"/></g><!--link aws_backup_job to aws_backup_recovery_point--><g id="link_aws_backup_job_aws_backup_recovery_point"><path codeLine="41" d="M258.14,246.8 C233.42,263.94 202.4294,285.4293 177.7294,302.5693 " fill="none" id="aws_backup_job-to-aws_backup_recovery_point" style="stroke:#1A83AF;stroke-width:2.0;"/><polygon fill="#1A83AF" points="172.8,305.99,182.4746,304.1453,176.9078,303.1395,177.9137,297.5727,172.8,305.99" style="stroke:#1A83AF;stroke-width:2.0;"/></g><!--link aws_backup_recovery_point to aws_backup_protected_resource--><g id="link_aws_backup_recovery_point_aws_backup_protected_resource"><path codeLine="42" d="M182.74,346.59 C216.22,363.73 259.5399,385.9045 292.9999,403.0445 " fill="none" id="aws_backup_recovery_point-to-aws_backup_protected_resource" style="stroke:#1A83AF;stroke-width:2.0;"/><polygon fill="#1A83AF" points="298.34,405.78,292.1535,398.1167,293.8899,403.5004,288.5061,405.2368,298.34,405.78" style="stroke:#1A83AF;stroke-width:2.0;"/></g><!--link aws_backup_vault to aws_backup_job--><g id="link_aws_backup_vault_aws_backup_job"><path codeLine="43" d="M261.12,147.01 C266.56,164.15 272.647,183.3505 278.077,200.4805 " fill="none" id="aws_backup_vault-to-aws_backup_job" style="stroke:#1A83AF;stroke-width:2.0;"/><polygon fill="#1A83AF" points="279.89,206.2,280.9835,196.412,278.3792,201.4337,273.3575,198.8294,279.89,206.2" style="stroke:#1A83AF;stroke-width:2.0;"/></g><!--link aws_backup_vault to aws_backup_protected_resource--><g id="link_aws_backup_vault_aws_backup_protected_resource"><path codeLine="44" d="M316.67,146.99 C344.9,159.27 375.65,178.31 392,206.58 C430.51,273.19 380.2865,361.3103 353.2865,400.9703 " fill="none" id="aws_backup_vault-to-aws_backup_protected_resource" style="stroke:#1A83AF;stroke-width:2.0;"/><polygon fill="#1A83AF" points="349.91,405.93,358.2813,400.7414,352.7238,401.7969,351.6683,396.2394,349.91,405.93" style="stroke:#1A83AF;stroke-width:2.0;"/></g><!--link aws_backup_vault to aws_backup_recovery_point--><g id="link_aws_backup_vault_aws_backup_recovery_point"><path codeLine="45" d="M231.61,146.86 C215.02,161.61 193.41,183.34 180,206.58 C161.42,238.77 152.9823,275.746 148.8023,300.166 " fill="none" id="aws_backup_vault-to-aws_backup_recovery_point" style="stroke:#1A83AF;stroke-width:2.0;"/><polygon fill="#1A83AF" points="147.79,306.08,153.2511,297.8839,148.6336,301.1517,145.3658,296.5342,147.79,306.08" style="stroke:#1A83AF;stroke-width:2.0;"/></g><!--SRC=[fP1FJm8n4CNl-ocQS2PX9GfSJ5OIeXTYn9incsuxXSfksqoxaDNutLt-Q9Ok1TJhlD_CUsyMaWE1mhYA551aW3QoIwaCHLgG156lnphNI3f2KD4V-E94AtSMcD82o3taAt2IKPzuNaYsL60jkMf8TvGjvwXBnNVd7L9bQmcKQr3Zd5gRE8SoAnqqml1HDXJ29_sZdJwF1pVGmZHom3tIw_LuFFAHirOdU_yGC_aE96u-RQeTj6AsBBRKoPGReX6oLVHR3sPyf9nBDIVNZTdJBXCgm8FvR46vNczeGNFRjB4E4BIh38nRhM0qv69m57u8mH7Rl8xGjKsp6YbDohIfqZUTaOye-cpBOSLW_GBcWAS8LfV8800YCBq2h5AZfN81Q4NBVAyT2zTzwSJ9i9zCNhktuTk_MjqwHbxL4DmkU-bcEA7tbxzPx_uMsgs3NGx_nyXh-GK0]--></g></svg>

<svg xmlns="http://www.w3.org/2000/svg" width="498" height="451" viewBox="0 0 498 451"><rect width="224" height="39.789" x="37" y="7" fill="#3D176E" rx="2.5" ry="2.5" style="stroke:#000d19;stroke-width:.5"/><circle cx="52" cy="26.895" r="11" fill="#ADD1B2" style="stroke:#181818;stroke-width:1"/><path d="M54.969 32.535q-.578.297-1.219.438-.64.156-1.344.156-2.5 0-3.828-1.64-1.312-1.657-1.312-4.782t1.312-4.781q1.328-1.656 3.828-1.656.703 0 1.344.156.656.156 1.219.453v2.719q-.625-.578-1.219-.844-.594-.281-1.219-.281-1.343 0-2.031 1.078-.687 1.062-.687 3.156t.687 3.172q.688 1.062 2.031 1.062.625 0 1.219-.265.594-.281 1.219-.86z"/><text x="71" y="32.78" fill="#D9B8FF" font-family="Helvetica" font-size="17" textLength="182">aws_backup_copy_job</text><rect width="177" height="39.789" x="197.5" y="206.58" fill="#3D176E" rx="2.5" ry="2.5" style="stroke:#000d19;stroke-width:.5"/><circle cx="212.5" cy="226.475" r="11" fill="#ADD1B2" style="stroke:#181818;stroke-width:1"/><path d="M215.469 232.115q-.578.297-1.219.438-.64.156-1.344.156-2.5 0-3.828-1.64-1.312-1.657-1.312-4.782t1.312-4.781q1.328-1.656 3.828-1.656.703 0 1.344.156.656.156 1.219.453v2.719q-.625-.578-1.219-.844-.594-.281-1.219-.281-1.344 0-2.031 1.078-.687 1.062-.687 3.156t.687 3.172q.688 1.062 2.031 1.062.625 0 1.219-.265.594-.281 1.219-.86z"/><text x="231.5" y="232.36" fill="#D9B8FF" font-family="Helvetica" font-size="17" textLength="135">aws_backup_job</text><rect width="311" height="39.789" x="180.5" y="406.16" fill="#3D176E" rx="2.5" ry="2.5" style="stroke:#000d19;stroke-width:.5"/><circle cx="195.5" cy="426.055" r="11" fill="#ADD1B2" style="stroke:#181818;stroke-width:1"/><path d="M198.469 431.695q-.578.297-1.219.438-.64.156-1.344.156-2.5 0-3.828-1.64-1.312-1.657-1.312-4.782t1.312-4.781q1.328-1.656 3.828-1.656.703 0 1.344.156.656.156 1.219.453v2.719q-.625-.578-1.219-.844-.594-.281-1.219-.281-1.344 0-2.031 1.078-.687 1.062-.687 3.156t.687 3.172q.688 1.062 2.031 1.062.625 0 1.219-.265.594-.281 1.219-.86z"/><text x="214.5" y="431.94" fill="#D9B8FF" font-family="Helvetica" font-size="17" textLength="269">aws_backup_protected_resource</text><rect width="276" height="39.789" x="7" y="306.37" fill="#3D176E" rx="2.5" ry="2.5" style="stroke:#000d19;stroke-width:.5"/><circle cx="22" cy="326.264" r="11" fill="#ADD1B2" style="stroke:#181818;stroke-width:1"/><path d="M24.969 331.905q-.578.297-1.219.438-.64.156-1.344.156-2.5 0-3.828-1.64-1.312-1.657-1.312-4.782t1.312-4.781q1.328-1.656 3.828-1.656.703 0 1.344.156.656.156 1.219.453v2.719q-.625-.579-1.219-.844-.594-.281-1.219-.281-1.343 0-2.031 1.078-.687 1.062-.687 3.156t.687 3.172q.688 1.062 2.031 1.062.625 0 1.219-.265.594-.281 1.219-.86z"/><text x="41" y="332.15" fill="#D9B8FF" font-family="Helvetica" font-size="17" textLength="234">aws_backup_recovery_point</text><rect width="195" height="39.789" x="157.5" y="106.79" fill="#3D176E" rx="2.5" ry="2.5" style="stroke:#000d19;stroke-width:.5"/><circle cx="172.5" cy="126.684" r="11" fill="#ADD1B2" style="stroke:#181818;stroke-width:1"/><path d="M175.469 132.325q-.578.297-1.219.438-.64.156-1.344.156-2.5 0-3.828-1.64-1.312-1.657-1.312-4.782t1.312-4.781q1.328-1.656 3.828-1.656.703 0 1.344.156.656.156 1.219.453v2.719q-.625-.579-1.219-.844-.594-.281-1.219-.281-1.344 0-2.031 1.078-.687 1.062-.687 3.156t.687 3.172q.688 1.062 2.031 1.062.625 0 1.219-.265.594-.281 1.219-.86z"/><text x="191.5" y="132.57" fill="#D9B8FF" font-family="Helvetica" font-size="17" textLength="153">aws_backup_vault</text><path fill="none" d="M146.21 46.98c-2.19 15.94-5.04 39.31-6.21 59.81-4.18 73.49.43 155.075 3.11 193.185" style="stroke:#1a83af;stroke-width:2"/><path fill="#1A83AF" d="m143.53 305.96 3.359-9.258-3.71 4.27-4.27-3.71z" style="stroke:#1a83af;stroke-width:2"/><path fill="none" d="M169.94 47.22c18.59 17.14 41.18 37.992 59.75 55.122" style="stroke:#1a83af;stroke-width:2"/><path fill="#1A83AF" d="m234.1 106.41-3.903-9.042.228 5.652-5.652.228z" style="stroke:#1a83af;stroke-width:2"/><path fill="none" d="M290.89 246.78c9.55 37.77 29.159 115.243 38.729 153.073" style="stroke:#1a83af;stroke-width:2"/><path fill="#1A83AF" d="m331.09 405.67 1.67-9.706-2.896 4.859-4.86-2.897z" style="stroke:#1a83af;stroke-width:2"/><path fill="none" d="M258.14 246.8c-24.72 17.14-55.71 38.63-80.41 55.77" style="stroke:#1a83af;stroke-width:2"/><path fill="#1A83AF" d="m172.8 305.99 9.675-1.845-5.567-1.005 1.006-5.567z" style="stroke:#1a83af;stroke-width:2"/><path fill="none" d="M182.74 346.59c33.48 17.14 76.8 39.315 110.26 56.455" style="stroke:#1a83af;stroke-width:2"/><path fill="#1A83AF" d="m298.34 405.78-6.186-7.663 1.736 5.383-5.384 1.737z" style="stroke:#1a83af;stroke-width:2"/><path fill="none" d="M261.12 147.01c5.44 17.14 11.527 36.34 16.957 53.47" style="stroke:#1a83af;stroke-width:2"/><path fill="#1A83AF" d="m279.89 206.2 1.094-9.788-2.605 5.022-5.022-2.605z" style="stroke:#1a83af;stroke-width:2"/><path fill="none" d="M316.67 146.99c28.23 12.28 58.98 31.32 75.33 59.59 38.51 66.61-11.714 154.73-38.714 194.39" style="stroke:#1a83af;stroke-width:2"/><path fill="#1A83AF" d="m349.91 405.93 8.371-5.189-5.557 1.056-1.056-5.558z" style="stroke:#1a83af;stroke-width:2"/><path fill="none" d="M231.61 146.86c-16.59 14.75-38.2 36.48-51.61 59.72-18.58 32.19-27.018 69.166-31.198 93.586" style="stroke:#1a83af;stroke-width:2"/><path fill="#1A83AF" d="m147.79 306.08 5.461-8.196-4.617 3.268-3.268-4.618z" style="stroke:#1a83af;stroke-width:2"/></svg>
